svgs/light/typewriter.svg

<svg xmlns="http://www.w3.org/2000/svg" viewBox="0 0 512 512"><!-- Font Awesome Pro 6.0.0-alpha2 by @fontawesome - https://fontawesome.com License - https://fontawesome.com/license (Commercial License) --><path d="M312 384H328C332.375 384 336 380.375 336 376V360C336 355.625 332.375 352 328 352H312C307.625 352 304 355.625 304 360V376C304 380.375 307.625 384 312 384ZM376 384H392C396.375 384 400 380.375 400 376V360C400 355.625 396.375 352 392 352H376C371.625 352 368 355.625 368 360V376C368 380.375 371.625 384 376 384ZM248 384H264C268.375 384 272 380.375 272 376V360C272 355.625 268.375 352 264 352H248C243.625 352 240 355.625 240 360V376C240 380.375 243.625 384 248 384ZM464 192H365.25C356.75 192 348.625 195.375 342.625 201.375L329.375 214.625C323.375 220.625 315.25 224 306.75 224H205.25C196.75 224 188.625 220.625 182.625 214.625L169.375 201.375C163.375 195.375 155.25 192 146.75 192H48C21.531 192 0 213.531 0 240V272C0 292.832 13.416 310.426 32 317.053V448C32 483.375 60.625 512 96 512H416C451.375 512 480 483.375 480 448V317.053C498.584 310.426 512 292.832 512 272V240C512 213.531 490.469 192 464 192ZM448 448C448 465.625 433.625 480 416 480H96C78.375 480 64 465.625 64 448V320H448V448ZM480 272C480 280.828 472.828 288 464 288H48C39.172 288 32 280.828 32 272V240C32 231.172 39.172 224 48 224H146.75L160 237.25C172 249.25 188.25 256 205.25 256H306.75C323.75 256 340 249.25 352 237.25L365.25 224H464C472.828 224 480 231.172 480 240V272ZM120 384H136C140.375 384 144 380.375 144 376V360C144 355.625 140.375 352 136 352H120C115.625 352 112 355.625 112 360V376C112 380.375 115.625 384 120 384ZM184 384H200C204.375 384 208 380.375 208 376V360C208 355.625 204.375 352 200 352H184C179.625 352 176 355.625 176 360V376C176 380.375 179.625 384 184 384ZM160 448H352C360.801 448 368 440.799 368 432C368 423.199 360.801 416 352 416H160C151.199 416 144 423.199 144 432C144 440.799 151.199 448 160 448ZM80 160C88.836 160 96 152.836 96 144V64C96 46.326 110.326 32 128 32H377.375L416 70.625V144C416 152.836 423.164 160 432 160S448 152.836 448 144V70.633C448 62.143 444.627 54.002 438.625 48L400 9.375C393.998 3.371 385.855 0 377.367 0H128C92.654 0 64 28.652 64 64V144C64 152.836 71.164 160 80 160Z"/></svg>

<svg xmlns="http://www.w3.org/2000/svg" viewBox="0 0 512 512"><!--! Font Awesome Pro 6.3.0 by @fontawesome - https://fontawesome.com License - https://fontawesome.com/license (Commercial License) Copyright 2023 Fonticons, Inc. --><path d="M312 384h16c4.375 0 8-3.625 8-8v-16c0-4.375-3.625-8-8-8h-16c-4.375 0-8 3.625-8 8v16C304 380.4 307.6 384 312 384zM376 384h16c4.375 0 8-3.625 8-8v-16c0-4.375-3.625-8-8-8h-16c-4.375 0-8 3.625-8 8v16C368 380.4 371.6 384 376 384zM248 384h16c4.375 0 8-3.625 8-8v-16c0-4.375-3.625-8-8-8h-16c-4.375 0-8 3.625-8 8v16C240 380.4 243.6 384 248 384zM464 192h-98.75c-8.5 0-16.62 3.375-22.62 9.375l-13.25 13.25C323.4 220.6 315.3 224 306.8 224h-101.5c-8.5 0-16.62-3.375-22.62-9.375L169.4 201.4C163.4 195.4 155.3 192 146.8 192H48C21.53 192 0 213.5 0 240v32c0 20.83 13.42 38.43 32 45.05V448c0 35.38 28.62 64 64 64h320c35.38 0 64-28.62 64-64V317.1C498.6 310.4 512 292.8 512 272v-32C512 213.5 490.5 192 464 192zM448 448c0 17.62-14.38 32-32 32H96c-17.62 0-32-14.38-32-32v-128h384V448zM480 272C480 280.8 472.8 288 464 288h-416C39.17 288 32 280.8 32 272v-32C32 231.2 39.17 224 48 224h98.75L160 237.3C172 249.3 188.3 256 205.3 256h101.5C323.8 256 340 249.3 352 237.3L365.3 224H464C472.8 224 480 231.2 480 240V272zM120 384h16c4.375 0 8-3.625 8-8v-16C144 355.6 140.4 352 136 352h-16c-4.375 0-8 3.625-8 8v16C112 380.4 115.6 384 120 384zM184 384h16c4.375 0 8-3.625 8-8v-16C208 355.6 204.4 352 200 352h-16c-4.375 0-8 3.625-8 8v16C176 380.4 179.6 384 184 384zM160 448h192c8.801 0 16-7.201 16-16c0-8.801-7.199-16-16-16H160c-8.801 0-16 7.199-16 16C144 440.8 151.2 448 160 448zM80 160C88.84 160 96 152.8 96 144V64c0-17.67 14.33-32 32-32h249.4L416 70.63V144C416 152.8 423.2 160 432 160S448 152.8 448 144V70.63C448 62.14 444.6 54 438.6 48L400 9.375C393.1 3.371 385.9 0 377.4 0H127.1C92.65 0 64 28.65 64 64v80C64 152.8 71.16 160 80 160z"/></svg>
